!!key: tele-40-10-Fan-All-02-Flute
!!!COM: Telemann, Georg Philipp
!!!CDT: 1681/03/14-1767/06/25
!!!CBL: Magdeburg
!!!CDL: Hamburg
!!!CNT: German
!!!TWV: 40:10
!!!TWV-genre: 40
!!!TWV-work: 10
!!!OPR: 12 Fantasias for transverse flute without bass
!!!OTL: Fantasia 9
!!!OMD: Allegro
!!!OMV: 2
!!!ODT: ca. 1732–1733
!!!AST: Late Baroque
!!!AGN: Fantasia
!!!AMT: Simple triple or Compound one
!!!AIN: Transverse flute
**kern
*ICww
*Iflt
*clefG2
*k[f#c#g#d#]
*E:
*M3/8
=1
8eL
16g#L
16e
16a
16eJJ
=2
16bLL
16e
16cc#
16a
16f#
16dd#JJ
=3
16eeLL
16eJJ
(32gg#LLk
16.ee)JJ
(32ff#LLk
16.dd#)JJ
=4
16eeLL
16cc#JJ
(32ff#LLk
16.dd#)JJ
(32eeLLk
16.cc#)JJ
=5
16dd#LL
16bJJ
(32eeLLk
16.cc#)JJ
(32dd#LLk
16.b)JJ
!!LO:LB:g=original
=6
16cc#LL
16f#
16a#X
16f#
16ff#
16f#JJ
=7
8bL
16dd#L
16b
16ee
16bJJ
=8
16ff#LL
16b
16gg#
16ee
16cc#
16aa#XJJ
=9
16bbLL
16b
16e
16b
16f#
16a#XJJ
=10
8bL
16r
16anL
16g#
16f#JJ
!!LO:LB:g=original
=11
16e#X\LL
(16cc#
16ddn
16cc#
16dd
16cc#)JJ
=12
16g#LL
(16ddn
16cc#
16b#X
16cc#
16dd)JJ
=13
16e#XLL
(16ddn
16cc#)
16ee#X
16gg#
16g#JJ
=14
16aLL
16f#JJ
16r
16eenLL
16dd#X
16cc#JJ
=15
16b#XLL
(16gg#
16aa
16gg#
16aa
16gg#)JJ
!!LO:LB:g=original
=16
16dd#LL
(16aa
16gg#
16ff##X
16gg#
16aa)JJ
=17
16b#XLL
(16aa
16gg#)
16bb#X
16ddd#
16dd#JJ
=18
16ee/LL
16cc#
16g#
16cc#
16e
16g#JJ
=19
8cc#L
16eeL
16cc#
16ff#
16cc#JJ
=20
16gg#LL
16cc#
16aa
16ff#
16dd#
16bb#XJJ
!!LO:LB:g=original
=21
16ccc#LL
16cc#
16f#
16cc#
16g#
16b#XJJ
=22
8cc#L
16r
16dd#L
16ee
16g#JJ
=23
16a#XLL
16cc#
16f#
16ee#X
16ff#
16eenJJ
=24
8dd#
(32ff#LLk
16.dd#)JJ
(32eeLLk
16.cc#)JJ
=25
16dd#LL
16bJJ
(32f#LLk
16.dd#)JJ
(32eLLk
16.cc#)JJ
!!LO:LB:g=original
=26
16d#LL
16f#JJ
16bLL
16gg#
16aa
16cc#JJ
=27
16dd#LL
16ff#
16b
16aa#X
16bb
16aanJJ
=28
8gg#
(32bbLLk
16.gg#)JJ
(32aaLLk
16.ff#)JJ
=29
16gg#LL
16eeJJ
(32bLLk
16.gg#)JJ
(32aLLk
16.ff#)JJ
=30
16g#LL
16b
16ee
16cc#
16ddn
16f#JJ
!!LO:LB:g=original
=31
16g#\LL
16b
16e
16dd#X
16ee
16ddnJJ
=32
16cc#LL
16ee
16a
16ee#X
16ff#
16eenJJ
=33
16dd#LL
16ff#
16b
16a
16g#
16eeJJ
=34
(32cc#LLk
16.a)JJ
(32bLLk
16.g#)JJ
(32aLLk
16.f#)JJ
=35
8eeL
16gg#L
16ee
16aa
16eeJJ
!!LO:LB:g=original
=36
16bbLL
16ee
16ccc#
16aa
16ff#
16ddd#JJ
=37
16eeeLL
16ee
16a
16ee
16b
16dd#JJ
=38
(32eLLk
16.ee)JJ
(32f#LLk
16.ee)JJ
(32g#LLk
16.ee)JJ
=39
16aLL
16cc#
16g#
16ddn
16a
16cc#JJ
=40
(32f#LLk
16.ff#)JJ
(32g#LLk
16.ff#)JJ
(32a#XLLk
16.ff#)JJ
!!LO:LB:g=original
=41
16bLL
16dd#
16a#X
16ee
16b
16dd#JJ
=42
16d#LL
16ff#
16e
16gg#
16d#
16ff#JJ
=43
(32bLLk
16.bb)JJ
(32bLLk
16.gg#)JJ
(32bLLk
16.bb)JJ
=44
(32bLLk
16.aa)JJ
(32bLLk
16.ff#)JJ
(32bLLk
16.aa)JJ
=45
16gg#LL
16ee
16a
16ee
16b
16dd#JJ
!!LO:LB:g=original
=46
16eeLL
16e
16dd#
16e
16cc#
16eJJ
=47
(32bLLk
16.e)JJ
(32g#LLk
16.e)JJ
(32bLLk
16.e)JJ
=48
(32aLLk
16.d#)JJ
(32f#LLk
16.d#)JJ
(32aLLk
16.d#)JJ
=49
16g#LL
16eJJ
16f#LL
16ee
16b
16dd#JJ
=50
4.e
==
*-
!!!RTL1: G. PH. Telemann: Twelve Fantasias for Flute without Bass TWV 40:2-13
!!!RPN1: D'Arcangelo, Rita
!!!RMM1: Da Vinci Classics
!!!RC#1: DV-C00440
!!!RRD1: 2022
!!!RLC1: Andreaskirche, Berlin, Germany
!!!RDT1: 16 September 2020, 17 September 2020
!!!RT#1: 9
!!!RTL2: The Telemann Files: 12 Fantasies for Solo Flute
!!!RPN2: Choi, Jasmine
!!!RMM2: Austrian Gramophone
!!!RC#2: AG0001
!!!RRD2: February 2015
!!!RLC2: LeFrak Hall, Queens, USA
!!!RDT2: 9 June 2014, 10 June 2014
!!!RT#2: 9
!!!RTL3: Georg Philipp Telemann: Twelve Fantasies for Flute
!!!RPN3: Robertello, Thomas
!!!RMM3: Delos
!!!RC#3: DE3396
!!!RRD3: 1 June 2009
!!!RLC3: Clear Creek Recording, Keene, California
!!!RDT3: Unknown
!!!RT#3: 9
